X:1
T:Title
L:1/8
Q:1/4=95
M:6/8
K:F
V:1 treble nm="Church Organ, Staff"
V:1
 c3 F2 G | A2 B c2 c | c2 f e2 c | dc=B c3 | c2 c f2 f | e2 e dcd | c2 c F2 G | A2 B c3 | %8
w: By~Mr.~Herbert~Stephen~Irons * *||||||||
 .c3 C2 D | E2 c f2 c | A2 F G2 A | B2 d cdB | ABG F3- | F3 F3- | F3 z3 |] %15
w: |||||||

